X:1
T:Title
%%score { 1 | ( 2 3 ) }
L:1/8
M:4/4
K:Ab
V:1 treble nm="Grand Piano"
V:2 bass 
V:3 bass 
V:1
 z4 z2[Q:1/4=100] [CE]2 | [CE]3 [CA] [CA]2 A2 | A2 c2 c2 A2 | B3 A B2 c2 |[M:3/4] [CA]6 | %5
[M:1/4] [CE]2 |[M:4/4] [CE]3 [CA] [CA]2 A2 | A2 c2 c2 A2 | B3 A B2 c2 |[M:3/4] [CA]6 |[M:1/4] c2 | %11
[M:4/4] c3 c c2 c2 | [Fd]2 [Fd]2 [Fd]2 [Fd]2 | [Fd]3 [Fd] [Af]2 [Fd]2 |[M:3/4] c4 B2 | %15
[M:1/4] [CE]2 |[M:4/4] [CE]3 [CA] [CA]2 A2 | A2 c2 c2 A2 | B3 A B2 c2 |[M:7/4] [CA]6 z2 z2 z4 |] %20
V:2
 z4 z2 [A,,A,]2 | [A,,A,]3 [A,,A,] [A,,A,]2 [A,C]2 | [A,C]2 [A,E]2 [A,E]2 [A,C]2 | %3
 [E,G,D]3 [E,A,C] [E,G,D]2 [E,G,E]2 |[M:3/4] [A,,A,]6 |[M:1/4] [A,,A,]2 | %6
[M:4/4] [A,,A,]3 [A,,A,] [A,,A,]2 [A,C]2 | [A,C]2 [A,E]2 [A,E]2 [A,C]2 | %8
 [E,G,D]3 [E,A,C] [E,G,D]2 [E,G,E]2 |[M:3/4] [A,,A,]6 |[M:1/4][K:treble] [A,E]2 | %11
[M:4/4] [A,E]3 [A,E] [A,E]2 [A,EG]2 | [D,A,]2 [D,A,]2 [D,A,]2 [D,A,]2 | %13
 [D,A,]3 [D,A,] [D,D]2 [D,A,]2 |[M:3/4] [A,E]4 z2 |[M:1/4] [A,,A,]2 | %16
[M:4/4] [A,,A,]3 [A,,A,] [A,,A,]2 [A,C]2 | [A,C]2 [A,E]2 [A,E]2 [A,C]2 | %18
 [E,G,D]3 [E,A,C] [E,G,D]2 [E,G,E]2 |[M:7/4] [A,,A,]6 z2 z2 z4 |] %20
V:3
 x8 | x8 | x8 | x8 |[M:3/4] x6 |[M:1/4] x2 |[M:4/4] x8 | x8 | x8 |[M:3/4] x6 | %10
[M:1/4][K:treble] x2 |[M:4/4] x8 | x8 | x8 |[M:3/4] E,4- [E,G,D]2 |[M:1/4] x2 |[M:4/4] x8 | x8 | %18
 x8 |[M:7/4] x14 |] %20

